X: 0584
T: LORD NELSON'S HORNPIPE
B: Oliver Ditson "The Boston Collection of Instrumental Music" 1910 p.58 #4
F: http://conquest.imslp.info/files/imglnks/usimg/8/8f/IMSLP175643-PMLP309456-bostoncollection00bost_bw.pdf
N: The rhythms aren't right at the phrase boundaries.
M: 2/4
L: 1/16
K: G
D2 |\
G2GG G2G2 | BGBd gdBG | D2DD D2D2 | FDFA cAFA |\
G2GG G2G2 | BGBd g2g2 | fafd ege^c | d2d2d2 :|
|: Bc |\
d2dd d2dd | dBgf edcB | efgf edcB | ABAG GFED |\
DGGG EGEG | DGGGEGEG | cedc BAGF | G2G2G2 :|

%%sep 1 1 500
%%sep 1 1 500
